X:1
T:Lustwins Wijsa
T:Lustwins Wijsa
T:Samuel Columbus
T:Knut Håkanson, Op. 36, No. 4
T:NB. Madrigalen kan lämpligen utföras en halvton lägre än skrivet.
C:Knut Håkanson, Op. 36, No. 4
%%score [ 1 2 3 4 ]
L:1/8
Q:1/4=124
M:2/2
K:D
V:1 treble nm="Soprano"
V:2 treble nm="Alto"
V:3 treble-8 nm="Tenor"
V:4 bass nm="Bass"
V:1
"^Allegro"!f! A A | d2 d2 (cd) (ec) | d4!mp! .f2 .f2 | .e2 .e2 .d2 .B2 | A4 !breath!A2!f! F F | %5
w: 1.Mu- si-|can- ter spee- * ler _|opp, Kunn' i|dock så vac- kert|lå- ta: Sträng- je-|
w: 2.Lus- tig|Gos- sar, den- * ne _|Dag Wij så|hag- light lå- tom|qwä- dom: Wij- san|
 B2 B2 c2 c2 | d4!mp! .e2 .e2 | .c2 .B2 .e2 .c2 | B4 A2 z2 |!mf! B6 c2 | A6 d2 | G6 (cA) | %12
w: klang gör Mood i|Kropp, Hwad kan|Twist och o- ljud|bå- ta?|Lil- la|Gos- se|stämm wäl _|
w: haar ock wack- ert|laag; Nu wäl-|ann, wij sam- man|trä- dom,|U- ti|Flo- rae|Ro- sen- *|
 !breath!F8 |!<(! G2 A2 B2 c2!<)! | (d8- | d3 =c)!>(! (B2 A2) | F4 ^G4!>)! | (e2 g2) (f2 e2) | %18
w: inn,|Lätt din skä- ra|Röst|_ _ op- *|gjäl- la|Hur _ en _|
w: gåhl,|Mä- dan wä- dret|så|_ _ will _|skick- a|Al- * la _|
 f4 (e2 d2) | e4 (d2 =c2) | B8 | z8 |!<(! G2 A2 B2 =c2!<)! | (d2 B2) (=c2 d2) | %24
w: Pillt hoos _|Wän- nen _|sin,||Al- dra- foog- ligst|sig _ skall _|
w: wack- ra _|Gos- sars _|Skål,||Will wij där i|af- * ton _|
!<(! e4 !breath!e2!<)!!f! A A | d2 d2 (cd) (ec) | d4 z2 e e | f2 f2 (ef) (ge) | f4 z4 | %29
w: stäl- la. Mu- si-|can- ter spee- * ler _|opp, Mu- si-|can- ter spee- * ler _|opp,|
w: drick- a. Lus- tig|Gos- sar, den- * ne _|Dag, Lus- tig|Gos- sar, den- * ne _|Dag,|
!ff! d A (!>!a6- | a2 !>!g4 !>!f2- | f2 !>!e4) f2 | d2"^rit. molto" (d d)"^ten." !breath!g4 | %33
w: Mu- si- can-||* * ter|* spel- ler opp,|
w: Al- la wack-||* * ra|Gos- sars _ Skål,|
 (f3 (e/d/) e2) e2 | !fermata!d6 |] %35
w: Spee- * * * ler|opp!|
w: Al- la _ Gos- sars|Skål!|
V:2
!f! A A | A2 A2 A2 A2 | A4!mp! .d2 .d2 | .B2 .=c2 .A2 .G2 | E4 !breath!F2!f! F F | F2 F2 F2 F2 | %6
w: 1.Mu- si-|can- ter spee- ler|opp, Kunn' i|dock så vac- kert|lå- ta: Sträng- je-|klang gör Mood i|
w: 2.Lus- tig|Gos- sar, den- ne|Dag Wij så|hag- light lå- tom|qwä- dom: Wij- san|haar ock wack- ert|
 F4!mp! .E2 .E2 | .E2 .E2 .E2 .F2 | (F2 E2) C2 z2 |!mf! (=G2 F2 E4- | E2) A,2 D4- | D2 E2 C4- | %12
w: Kropp, Hwad kan|Twist och o- ljud|bå- * ta?|Lil- * *|* la Gos-|* se stämm|
w: laag; Nu wäl-|ann, wij sam- man|trä- * dom,|U- * *|* ti Flo-|* rae Ro-|
 C2 E2 (D2 !breath!B,2) |!<(! E2 F2 G2 A2!<)! | (D8- | D2 A2)!>(! (G2 F2) | (E2 ^D2) E4!>)! | %17
w: _ wäl inn, _|Lätt din skä- ra|Röst|_ _ op- *|gjäl- * la|
w: * sen- gåhl, *|Mä- dan wä- dret|så|_ _ will _|skick- * a|
 (AB =c2 A4- | A2) D2 G4- | G2 A2 F4- | F2 A2 (G2 E2) | z8 |!<(! B,2 =C2 D2 E2!<)! | %23
w: Hur _ _ _|_ en Pillt|_ hoos Wän-|* nen sin, _||Al- dra- foog- ligst|
w: Al- * * *|* la wack-|* ra Gos-|* sars Skål, _||Will wij där i|
 (=F2 G2) (A2 B2) |!<(! E4 (E!breath!^F)!<)!!f! G A | F2 F2 A2 A2 | D4 z2 A A | d2 d2 A2 (Bc) | %28
w: sig _ skall _|stäl- la. _ Mu- si-|can- ter spee- ler|opp, Mu- si-|can- ter spee- ler _|
w: af- * ton _|drick- a. _ Lus- tig|Gos- sar, den- ne|Dag, Lus- tig|Gos- sar den- ne _|
 d4 z4 |!ff! A4 (B2 c2) | d4 c4 | B4 A4 | B2"^rit. molto" z2 z2 B B | A6 A2 | !fermata!F6 |] %35
w: opp,|Mu- si- *|can- ter|spee- ler|opp, Spee- ler|opp, speel|opp!|
w: Dag,|Al- la _|wack- ra|Gos- sars|Skål, Al- la|Gos- sars|Skål!|
V:3
!f! A A | d2 d2 e2 e2 | f4!mp! .f2 .f2 | .g2 .g2 .f2 .d2 | (d2 c2) !breath!d2!f! F F | %5
w: 1.Mu- si-|can- ter spee- ler|opp, Kunn' i|dock så vac- kert|lå- * ta: Sträng- je-|
w: 2.Lus- tig|Gos- sar, den- ne|Dag Wij så|hag- light lå- tom|qwä- * dom: Wij- san|
 B2 B2 (^AB) (cA) | B4!mp! .B2 .B2 | .A2 .^G2 .G2 .A2 | (A2 ^G2) A2 z2 |!mf! d4 (c2 B2) | %10
w: klang gör Mood _ i _|Kropp, Hwad kan|Twist och o- ljud|bå- * ta?|Lil- la _|
w: haar ock wack- * ert _|laag; Nu wäl-|ann, wij sam- man|trä- * dom,|U- ti _|
 c4 (B2 A2) | B4 (A2 G2) | F8 | z8 |!<(! F2 G2 A2 B2 | (=c2!<)! e2) (d2 c2) |!>(! B4 B4!>)! | %17
w: Gos- se _|stämm wäl _|inn,||Lätt din skä- ra|Röst _ op- *|gjäl- la|
w: Flo- rae _|Ro- sen- *|gåhl,||Mä- dan wä- dret|så _ will _|skick- a|
 e6 g2 | d6 g2 | =c6 (fd) | B8 |!<(! =c2 d2 e2 f2!<)! | (g8- | g3 =f) (e2 d2) |!<(! (B4 c4)!<)! | %25
w: Hur en|Pillt hoos|Wän- nen _|sin,|Al- dra- foog- ligst|sig|_ _ skall _|stäl- *|
w: Al- la|wack- ra|Flick- ors _|Skål,|Will wij där i|af-|* * ton _|drick- *|
 A2 z2 z2!f! A A | d2 d2 (cd) (ec) | d4 z2 e e | f2 f2 (ef) (ge) | f4!ff! e2 e2 | (f2 d2) (e2 c2) | %31
w: la. Mu- si-|can- ter spee- * ler _|opp, Mu- si-|can- ter spee- * ler _|opp, Mu- si-|can- * ter _|
w: a. Al- la|wack- ra Flick- * ors _|Skål Al- la|wack- ra Flick- * ors _|Skål, Al- la|wack- * ra _|
 (d2 B2) (c2 A2) | d2"^rit. molto" z2 z2 c c | (d4- dc/B/) c2 | !fermata!A6 |] %35
w: spee- * ler _|opp, Spee- ler|opp, _ _ _ speel|opp!|
w: Flick- * ors _|Skål, Al- la|Flick- * * * ors|Skål!|
V:4
!f! A, A, | F,2 F,2 A,2 A,2 | D,4!mp! .B,,2 .B,,2 | .E,2 .=C,2 .D,2 .G,2 | %4
w: 1.Mu- si-|can- ter spee- ler|opp, Kunn' i|dock så vac- kert|
w: 2.Lus- tig|Gos- sar, den- ne|Dag Wij så|hag- light lå- tom|
 A,4 !breath!D,2!f! F, F, | D,2 D,2 F,2 F,2 | B,,4!mp! .^G,,2 .G,,2 | .A,,2 .E,2 .C,2 .F,2 | %8
w: lå- ta: Sträng- je-|klang gör Mood i|Kropp, Hwad kan|Twist och o- ljud|
w: qwä- dom: Wij- san|haar ock wack- ert|laag; Nu wäl-|ann, wij sam- man|
 (D,2 E,2) A,,2 z2 |!mf! =G,6 G,2 | F,6 F,2 | E,6 E,2 | (D,2 C,2 B,,4) | z8 |!<(! D,2 E,2 F,2 G,2 | %15
w: bå- * ta?|Lil- la|Gos- se|stämm wäl|inn, _ _||Lätt din skä- ra|
w: trä- * dom,|U- ti|Flo- rae|Ro- sen-|gåhl, _ _||Mä- dan wä- dret|
 (A,2!<)! F,2) (G,2 A,2) |!>(! B,4 E,4!>)! | =C6 C2 | B,6 B,2 | A,6 A,2 | (G,2 F,2 E,4) | %21
w: Röst _ op- *|gjäl- la|Hur en|Pillt hoos|Wän- nen|sin, _ _|
w: så _ will _|skick- a|Al- la|wack- ra|Flick- ors|Skål, _ _|
!<(! A,2 B,2 =C2 D2!<)! | (G,8- | G,2 D2) (=C2 B,2) |!<(! (A,2 ^G,2 A,=G,F,E,)!<)! | %25
w: Al- dra- foog- ligst|sig|_ _ skall _|stäl- * * * * *|
w: Will wij där i|af-|* * ton _|drick- * * * * *|
 D,2 z2 z2!f! A, A, | F,2 F,2 A,2 A,2 | D,4 z2 A, A, | D2 D2 A,2 (B,C) | D4!ff! C2 C2 | B,4 A,4 | %31
w: la. Mu- si-|can- ter spee- ler|opp, Mu- si-|can- ter spee- ler _|opp, Mu- si-|can- ter|
w: a. Al- la|wack- ra Flick- ors|Skål Al- la|wack- ra Flick- ors _|Skål, Al- la|wack- ra|
 G,4 F,4 | G,2"^rit. molto" z2 z2 E, E, | (F,2 G,2 A,2) A,,2 | !fermata!D,6 |] %35
w: spee- ler|opp, Spee- ler|opp, _ _ speel|opp!|
w: Flick- ors|Skål, Al- la|Flick- * * ors|Skål!|

